icons/svg/32x32/user detailed/filled.svg

<svg width="32" height="32" fill="none" xmlns="http://www.w3.org/2000/svg">
  <path fill-rule="evenodd" clip-rule="evenodd" d="M17 18l.93 7.505a.997.997 0 01-.283.848L16 28l-1.647-1.647a.997.997 0 01-.283-.848L15 18h2zm-6-1v12c-1.676 0-6-1-6-4 0-3.065 2.646-6.213 6-8zm16 8c0 3-4.324 4-6 4V17c3.354 1.787 6 4.935 6 8zm-7.273-12.742l-.531.056-.248.472C18.385 13.856 17.314 15 16.001 15c-1.314 0-2.384-1.144-2.947-2.214l-.248-.472-.531-.056a.812.812 0 01-.731-.806c0-.3.17-.575.444-.719l.363-.19h.011l.004-.008.069-.036.03-.197c.945-2.184 3.344-.12 5.089-2.934A3.511 3.511 0 0119.489 10l.077.498.447.235a.814.814 0 01.444.719.812.812 0 01-.73.806zm1.906-2.764C22.179 7.942 21.796 6.809 21 6c-.614-.625-1.342-.914-2.271-.914C17.749 4.404 16.399 4 15 4c-1.746 0-3.246 1-4 2-.791 1.05-1.041 2.44-.737 3.598a2.787 2.787 0 00-.719 1.854c0 1.252.818 2.323 1.977 2.683C12.605 15.913 14.288 17 16.001 17c1.713 0 3.395-1.087 4.48-2.865a2.806 2.806 0 001.976-2.683 2.78 2.78 0 00-.824-1.958z" fill="#000"/>
</svg>

<svg xmlns="http://www.w3.org/2000/svg" width="32" height="32" viewBox="0 0 32 32">
  <path fill-rule="evenodd" d="M17,19 L17.93,25.505 C17.974,25.816 17.869,26.131 17.646,26.354 L16,28 L14.354,26.354 C14.131,26.131 14.026,25.816 14.07,25.505 L15,19 L17,19 Z M26,23.5 C26,25.043 24.289,26.773 21.684,27.874 C21.359,28.011 21,27.76 21,27.407 L21,17.848 C21,17.455 21.432,17.218 21.768,17.42 C24.286,18.937 26,21.39 26,23.5 L26,23.5 Z M11,17.848 L11,27.407 C11,27.76 10.641,28.011 10.316,27.874 C7.711,26.773 6,25.043 6,23.5 C6,21.39 7.714,18.937 10.232,17.42 C10.568,17.218 11,17.455 11,17.848 L11,17.848 Z M19.727,12.258 L19.196,12.314 L18.948,12.786 C18.385,13.856 17.314,15 16.001,15 C14.687,15 13.617,13.856 13.054,12.786 L12.806,12.314 L12.275,12.258 C11.858,12.213 11.544,11.867 11.544,11.452 C11.544,11.152 11.714,10.877 11.988,10.733 L12.351,10.543 L12.362,10.543 C12.363,10.54 12.365,10.538 12.366,10.535 L12.435,10.499 L12.465,10.302 C13.41,8.118 15.809,10.182 17.554,7.368 C18.561,7.862 19.307,8.814 19.489,10 L19.566,10.498 L20.013,10.733 C20.287,10.877 20.457,11.152 20.457,11.452 C20.457,11.867 20.143,12.213 19.727,12.258 L19.727,12.258 Z M22.457,11.452 C22.457,10.703 22.146,10.012 21.633,9.494 C22.553,6.878 20.94,5.086 18.729,5.086 C13.356,2.016 9.279,6.071 10.263,9.598 C9.812,10.104 9.544,10.754 9.544,11.452 C9.544,12.704 10.362,13.775 11.521,14.135 C12.605,15.913 14.288,17 16.001,17 C17.714,17 19.396,15.913 20.481,14.135 C21.639,13.775 22.457,12.704 22.457,11.452 L22.457,11.452 Z"/>
</svg>
